X:1
T:Title
%%score [ 1 2 3 4 ]
L:1/8
Q:1/4=120
M:4/4
K:C
V:1 treble nm="MusicXML Part"
V:2 treble nm="MusicXML Part"
V:3 treble-8 nm="MusicXML Part"
V:4 bass nm="MusicXML Part"
V:1
 G4 A2 B2 | c2 c2 c2 d2 | e2 g2 f3 e | d2 c2 B4 | e4 d2 c2 | B2 B2 c3 B | A2 A2 G4 | G2 A2 A2 A2 | %8
w: Quand j'ap- per-|çoy, quand j'ap- per-|çoy ton beau chef|jau- nis- sant,|Qui l'or fi-|lé des Cha- ri-|tés ef- fa-|ce Et ton bel|
 cBcd e2 e2 | f2 e2 c2 d2 | e4 e2 c2 | c4 c4 | BABc d2 e2 | d2 c2 c2 B2 | c8 | G4 A2 B2 | %16
w: oeil * * * * qui|les as- tres sur-|pas- se Et|ton beau|teint * * * * chas-|te- ment rou- gis-|sant,|A front bais-|
 c2 c2 c2 d2 | e2 g2 f3 e | d2 c2 B4 | e4 d2 c2 | B2 B2 c3 B | A2 A2 G4 | G2 A2 A2 A2 | %23
w: sé, à front bais-|sé je pleu- re|gé- mis- sant|De quoy je|suis, par- don di-|gne de grâ-|ce. Sous l'hum- ble|
 cBcd e2 e2 | f2 e2 c2 d2 | e4 e2 c2 | c4 c4 | BABc d2 e2 | d2 c2 c2 B2 | c4 z2 G2- | G2 G2 A4 | %31
w: voix * * * * de|ma ry- me si|bas- se De|tes beau-|téz * * * * les|hon- neurs tra- his-|sant. Je|* con- noy|
 G8 | z2 g2 e2 e2 | d2 c2 d4 | e2 G2 c2 c2 | B2 B2 c3 B | A2 G2 FEFG | ABcB AG G2- | G2 ^F2 G4 | %39
w: bien|que je de-|vroy me tai-|re Ou mieux par-|ler, mais l'a- mou-|reux ul- cè- * * *||* * re|
 z2 c4 B2 | A4 G2 G2 | c2 c2 BA d2- | dc c4 B2 | c4 z2 c2- | c2 B2 A4 | G8 | z2 g2 e2 e2 | %47
w: Qui m'ard|le coeur, me|for- ce de * *|* * chan- *|ter Don-|* que, mon|Tout,|si di- gne-|
 d2 c2 d4 | e2 G2 c2 c2 | B2 B2 c3 B | A2 G2 FEFG | ABcB AG G2- | G2 ^F2 G4 | z2 c4 B2 | A4 G2 G2 | %55
w: ment je n'u-|se L'encre et la|voix à tes *|grâ- ces van- * * *||* * ter.|Non l'ou-|vrier, non, mais|
 c2 c2 B2 d2- | d2 c4 B2 | c2 c4 B2 | A4 G2 G2 | c2 c2 B2 d2- | dc c4 B2 | c8 |] %62
w: son des- tin ac-|* cu- *|se, Non l'ou-|vrier, non, mais|son des- tin ac-|* * cu- *|se.|
V:2
 C4 F2 D2 | C2 G2 F2 F2 | E2 E2 A3 G | G2 E2 G4 | G4 A2 A2 | G2 G2 G3 G | E2 F2 D4 | D2 F2 F2 F2 | %8
w: Quand j'ap- per-|çoy, quand j'ap- per-|çoy ton beau chef|jau- nis- sant,|Qui l'or fi-|lé des Cha- ri-|tés ef- fa-|ce Et ton bel|
 GFED C2 E2 | A2 G2 F2 F2 | E4 E2 A2 | A2 A2 G2 F2 | GFGA B2 cB | AG F2 G2 G2 | E8 | C4 F2 D2 | %16
w: oeil * * * * qui|les as- tres sur-|pas- se Et|ton beau teint *|* * * * * chas- *|te- * ment rou- gis-|sant,|A front bais-|
 C2 G2 F2 F2 | E2 E2 A3 G | G2 E2 G4 | G4 A2 A2 | G2 G2 G3 G | E2 F2 D4 | D2 F2 F2 F2 | %23
w: sé, à front bais-|sé je pleu- re|gé- mis- sant|De quoy je|suis, par- don di-|gne de grâ-|ce. Sous l'hum- ble|
 GFED C2 E2 | A2 G2 F2 F2 | E4 E2 A2 | A2 A2 G2 F2 | GFGA B2 cB | AG F2 G2 G2 | E8 | z2 E2 C2 D2 | %31
w: voix * * * * de|ma ry- me si|bas- se De|tes beau- * *|téz * * * * les *|hon- * neurs tra- his-|sant.|Je con- noy|
 E2 G2 E2 E2 | CB,CD EFGA | B2 c4 B2 | c2 C2 CDEF | G2 G2 E2 C2 | C2 C2 D2 D2 | EFGE F2 E2- | %38
w: bien que je de-|vroy * * * * * * *|me tai- *|re Ou mieux * par- *|ler, mais l'a- mou-|reux ul- * cè-||
 ED C4 B,2 | C2 G2 A2 G2 | E4 C2 CD | EF G4 A2- | A2 F2 G4 | E4 z2 G2- | G2 G2 E4 | E2 G2 E2 E2 | %46
w: |re Qui m'ard le|coeur, me for- *|* * * ce|* de chan-|ter Don-|* que, mon|Tout, si di- gne-|
 CB,CD EFGA | B2 c4 B2 | c2 C2 CE F2 | G2 G2 E2 C2- | C2 C2 D2 D2 | EFGE F2 E2- | ED C4 B,2 | %53
w: ment * * * * * * *|* je n'u-|se L'encre et * *|* la voix à|* tes grâ- ces|van- * * * * *||
 C2 G2 A2 G2 | E4 C2 CD | EF G4 A2 | G2 F2 G4 | E2 G2 A2 G2 | E4 C2 CD | EF G4 A2 | G2 F2 G4 | %61
w: ter. Non l'ou- vrier,|non, mais son *|* * * des-|tin ac- cu-|se, Non l'ou- vrier,|non, mais son *|* * * des-|tin ac- cu-|
 E8 |] %62
w: se.|
V:3
 z8 | G4 A2 B2 | c2 G2 c3 c | B2 c2 d4 | z2 e2 f2 f2 | d2 d2 e3 d | c2 c2 B4 | B2 d2 d2 d2 | %8
w: |Quand j'ap- per-|çoy ton beau chef|jau- nis- sant,|Qui l'or fi-|lé des Cha- ri-|tés ef- fa-|ce Et ton bel|
 edef g2 c2 | c2 c2 A2 B2 | c4 c2 c2 | f2 f2 e2 c2 | d2 B2 g3 f/e/ | fdcd- d d3 | c8 | z8 | %16
w: oeil * * * * qui|les as- tres sur-|pas- se Et|ton beau teint chas-|te- ment rou- * *|* * * * * gis-|sant,||
 G4 A2 B2 | c2 G2 c3 c | B2 c2 d4 | z2 e2 f2 f2 | d2 d2 e3 d | c2 c2 B4 | B2 d2 d2 d2 | %23
w: A front bais-|sé je pleu- re|gé- mis- sant|De quoy je|suis, par- don di-|gne de grâ-|ce. Sous l'hum- ble|
 edef g2 c2 | c2 c2 A2 B2 | c4 c2 c2 | f2 f2 e2 c2 | d2 B2 g3 f/e/ | fedc d2 d2 | c2 G4 G2 | %30
w: voix * * * * de|ma ry- me si|bas- se De|tes beau- téz les|hon- neurs tra- * *|* * * * * his-|sant. Je con-|
 c3 B AG A2 | B4 z2 g2 | e2 e2 cdef | g2 a2 g4 | g2 e4 c2 | d4 c4 | z2 G2 A2 A2 | c6 B2 | c4 d4 | %39
w: noy * * * *|bien que|je de- vroy * * *|* me tai-|re Ou mieux|par- ler,|mais l'a- mou-|reux ul-|cè- *|
 e2 e2 f2 d2 | c2 c2 edef | g2 e2 d2 f2- | fedc d4 | c4 z2 e2- | e2 d2 c4 | B4 z2 g2 | e2 e2 cdef | %47
w: re Qui m'ard le|coeur, me for- * * *|* ce de chan-||ter Don-|* que, mon|Tout, si|di- gne- ment * * *|
 g2 a2 g4 | g2 e4 c2 | d4 c4 | z2 G2 A4 | c6 B2 | c4 d4 | e2 e2 f2 d2 | c2 c2 edef | g2 e2 d2 f2 | %56
w: * je n'u-|se L'encre et|la voix|à tes|grâ- *|ces van-|ter. Non l'ou- vrier,|non, mais son * * *|* des- tin ac-|
 e2 dc d4 | c2 e2 f2 d2 | c2 c2 edef | g2 e2 d2 f2 | e2 dc d4 | c8 |] %62
w: cu- * * *|se, Non l'ou- vrier,|non, mais son * * *|* des- tin ac-|cu- * * *|se.|
V:4
 z8 | C,4 F,2 D,2 | C,2 E,2 F,3 C, | G,2 A,2 G,4 | C4 F,2 F,2 | G,2 G,2 C,3 G, | A,2 F,2 G,4 | %7
w: |Quand j'ap- per-|çoy ton beau chef|jau- nis- sant,|Qui l'or fi-|lé des Cha- ri-|tés ef- fa-|
 G,2 D,2 D,2 D,2 | C,2 C2 CB,A,G, | F,2 C,2 F,2 D,2 | C,4 C,2 F,2 | F,G,A,B, C2 A,2 | G,6 C,2 | %13
w: ce Et ton bel|oeil qui les * * *|* as- tres sur-|pas- se Et|ton * * * * beau|teint chas-|
 F,2 A,2 G,2 G,2 | C,8 | z8 | C,4 F,2 D,2 | C,2 E,2 F,3 C, | G,2 A,2 G,4 | C4 F,2 F,2 | %20
w: te- ment rou- gis-|sant,||A front bais-|sé je pleu- re|gé- mis- sant|De quoy je|
 G,2 G,2 C,3 G, | A,2 F,2 G,4 | G,2 D,2 D,2 D,2 | C,2 C2 CB,A,G, | F,2 C,2 F,2 D,2 | C,4 C,2 F,2 | %26
w: suis, par- don di-|gne de grâ-|ce. Sous l'hum- ble|voix de ma * * *|* ry- me si|bas- se De|
 F,G,A,B, C2 A,2 | G,6 C,2 | F,2 A,2 G,2 G,2 | C,4 z2 C,2- | C,2 C,2 F,4 | E,4 z4 | z8 | %33
w: tes * * * * beau-|téz les|hon- neurs tra- his-|sant. Je|* con- noy|bien.||
 z4 z2 G,2 | C4 A,4 | G,2 G,2 A,3 G, | F,2 E,2 D,4 | C,2 C,2 F,2 G,2 | A,2 A,2 G,4 | %39
w: Ou|mieux par-|ler, mais l'a- mou-|reux ul- cè-|re, mais l'a- mou-|reux ul- cè-|
 C,2 C,2 F,2 G,2 | A,G,A,B, C2 C,2 | C,D,E,F, G,2 F,2 | A,4 G,4 | C,4 z2 C,2- | C,2 G,2 A,4 | E,8 | %46
w: re, Qui m'ard le|coeur, * * * * me|for- * * * * ce|de chan-|ter Don-|* que, mon|Tout.|
 z8 | z4 z2 G,2 | C4 A,4 | G,2 G,2 A,3 G, | F,2 E,2 D,4 | C,2 C,2 F,2 G,2 | A,4 G,4 | %53
w: |L'encre|et la|voix, à tes grâ-|ces van- ter,|à tes grâ- *|ces van-|
 C,2 C,2 F,2 G,2 | A,G,A,B, C2 C,2 | C,D,E,F, G,2 F,2 | G,2 A,2 G,4 | C,2 C2 F,2 G,2 | %58
w: ter. Non l'ou- vrier,|non, * * * * mais|son * * * * des-|tin ac- cu-|se, Non l'ou- vrier,|
 A,G,A,B, C2 C,2 | C,D,E,F, G,2 F,2 | G,2 A,2 G,4 | C,8 |] %62
w: non, * * * * mais|son * * * * des-|tin ac- cu-|se.|

